X: 146
T: Allemande La Grande
%R: reel
B: Chas & Sam Thompson "Twenty Four Country Dances for the Year 1782", London 1782, p.73 #2
F: http://www.vwml.org/browse/browse-collections-dance-tune-books/browse-thompsons1782
Z: 2014 John Chambers <jc:trillian.mit.edu> (added dance description)
M: 2/4
L: 1/16
K: F
% - - - - - - - - - - - - - - - - - - - - - - - - - - - - -
|:\
f2ag f2c2 | Acfa gbge |\
f2ag f2c2 | gbge f4 ::\
cAcA dBdB | AGFE FAcA |\
cAcA dBdB | AGFE F4 :|
% - - - - - - - - - - Dance description - - - - - - - - - -
%%begintext align
%% Right hands across .|. left hands back
%% again :|. lead down the middle .|: up again
%% and cast of :|:
%%endtext

%%sep 1 1 500
%%sep 1 1 500
